X: 10242
T: Lancers Part 2 (Reel)
B: K\"ohler's Violin Repository, v.1, 1885 p.24 #2
F: http://www.archive.org/details/klersviolinrepos01edin
Z: 2011 John Chambers <jc:trillian.mit.edu>
M: 2/4
L: 1/16
K: Bb
uF2 |\
B2BB B2B2 | (.B3.F) GABc | d2dd d2d2 | (.d3.A) Bcde |\
f2ff f2b2 | f2de f2b2 | f2(de) fedc | B6 ||
uF2 |\
B2B2 AGAF | B2B2 AGAF | B2(cd) edcB | AB{d}cB AFGA |\
B2B2 AGAF | B2B2 AGAF | B2(cd) ceAc | B6 ||
uB2 |\
A2f2f2f2 | fedc BcdB | A2F2F2 (GA) | {c}BABc dcBd |\
c2f2f2f2 | fedc B2b2 | B2b2 fedc | B6 "_D.C."|]

%%sep 2 1 500

